src/Assets/burgerBase.svg

<?xml version="1.0" encoding="UTF-8" standalone="no" ?>
<!DOCTYPE svg PUBLIC "-//W3C//DTD SVG 1.1//EN" "http://www.w3.org/Graphics/SVG/1.1/DTD/svg11.dtd">
<svg xmlns="http://www.w3.org/2000/svg" xmlns:xlink="http://www.w3.org/1999/xlink" version="1.1" width="199" height="44" viewBox="0 0 199 44" xml:space="preserve">
<desc>Created with Fabric.js 3.6.3</desc>
<defs>
</defs>
<g transform="matrix(1 0 0 1 91 51)"  >
<g style=""   >
		<g transform="matrix(0.1 0 0 -0.1 8.81 -28.23)" id="5"  >
<path style="stroke: none; stroke-width: 1; stroke-dasharray: none; stroke-linecap: butt; stroke-dashoffset: 0; stroke-linejoin: miter; stroke-miterlimit: 4; fill: rgb(244,173,25); fill-rule: nonzero; opacity: 1;" vector-effect="non-scaling-stroke"  transform=" translate(-2422.37, -1088.61)" d="M 3369.82 970.672 C 3369.82 931.551 3338.1000000000004 898.609 3298.98 898.609 L 1545.75 898.609 C 1506.62 898.609 1474.91 931.551 1474.91 970.672 L 1457.2 1204.33 C 1457.2 1243.4499999999998 1488.91 1278.61 1528.04 1278.61 L 3316.7 1278.61 C 3355.7999999999997 1278.61 3387.54 1243.4499999999998 3387.54 1204.33 L 3369.82 970.6719999999999" stroke-linecap="round" />
</g>
		<g transform="matrix(0.1 0 0 -0.1 8.81 -28.23)" id="26"  >
<path style="stroke: none; stroke-width: 1; stroke-dasharray: none; stroke-linecap: butt; stroke-dashoffset: 0; stroke-linejoin: miter; stroke-miterlimit: 4; fill: rgb(9,16,25); fill-rule: nonzero; opacity: 1;" vector-effect="non-scaling-stroke"  transform=" translate(-2422.37, -1088.61)" d="M 3369.82 970.672 L 3339.82 970.672 C 3339.8300000000004 959.289 3335.2000000000003 948.711 3327.61 940.9300000000001 C 3319.98 933.172 3310.01 928.6210000000001 3298.98 928.609 L 1545.75 928.609 C 1534.72 928.621 1524.75 933.172 1517.12 940.9300000000001 C 1509.53 948.711 1504.8999999999999 959.2890000000001 1504.9099999999999 970.672 L 1504.9099999999999 971.801 L 1487.11 1206.6000000000001 L 1457.1999999999998 1204.3300000000002 L 1487.1999999999998 1204.3300000000002 C 1487.1399999999999 1215.7100000000003 1491.9899999999998 1227.3000000000002 1499.84 1235.6200000000001 C 1503.73 1239.7800000000002 1508.26 1243.0700000000002 1513.02 1245.2600000000002 C 1517.8 1247.4500000000003 1522.76 1248.6000000000001 1528.04 1248.6100000000001 L 3316.7 1248.6100000000001 C 3321.97 1248.6000000000001 3326.9199999999996 1247.45 3331.7 1245.2600000000002 C 3338.8399999999997 1241.9900000000002 3345.49 1236.1600000000003 3350.18 1228.8200000000002 C 3354.8999999999996 1221.4900000000002 3357.5499999999997 1212.88 3357.54 1204.3300000000002 L 3387.54 1204.3300000000002 L 3357.63 1206.6000000000001 L 3339.82 971.8010000000002 L 3339.82 970.6720000000001 L 3369.82 970.6720000000001 L 3399.7400000000002 968.3980000000001 L 3417.5400000000004 1203.19 L 3417.5400000000004 1204.3300000000002 C 3417.4800000000005 1232.0700000000002 3406.4700000000003 1257.6200000000001 3388.6700000000005 1276.65 C 3379.7400000000007 1286.18 3369.0100000000007 1294.1200000000001 3356.8300000000004 1299.75 C 3344.6600000000003 1305.37 3330.9800000000005 1308.61 3316.7000000000003 1308.61 L 1528.04 1308.61 C 1513.75 1308.61 1500.07 1305.37 1487.8999999999999 1299.75 C 1469.61 1291.29 1454.6299999999999 1277.7 1444.04 1261.22 C 1433.47 1244.73 1427.21 1225.1100000000001 1427.2 1204.33 L 1427.2 1203.1999999999998 L 1444.99 968.3979999999998 L 1474.91 970.6719999999998 L 1444.91 970.6719999999998 C 1444.92 942.9219999999998 1456.14 917.4799999999998 1474.19 899.0119999999998 C 1492.19 880.5119999999998 1517.65 868.6019999999999 1545.75 868.6089999999998 L 3298.98 868.6089999999998 C 3327.08 868.6019999999999 3352.53 880.5119999999998 3370.54 898.9999999999998 C 3388.59 917.4799999999998 3399.81 942.9219999999998 3399.82 970.6719999999998 L 3369.82 970.6719999999998 L 3399.7400000000002 968.3979999999998 L 3369.82 970.6719999999998" stroke-linecap="round" />
</g>
		<g transform="matrix(0.1 0 0 -0.1 -38.43 -49.73)" id="whzUd5Nrb9li_rXNaJvQ9"  >
<path style="stroke: none; stroke-width: 1; stroke-dasharray: none; stroke-linecap: butt; stroke-dashoffset: 0; stroke-linejoin: miter; stroke-miterlimit: 4; fill: rgb(28,49,84); fill-rule: nonzero; opacity: 1;" vector-effect="non-scaling-stroke"  transform=" translate(-1950, -1303.61)" d="M 1890 1298.61 L 2010 1298.61 L 2010 1308.61 L 1890 1308.61 z" stroke-linecap="round" />
</g>
		<g transform="matrix(0.1 0 0 -0.1 -18.93 -49.73)" id="bcJkyBq-Iu3zE0AApJup6"  >
<path style="stroke: none; stroke-width: 1; stroke-dasharray: none; stroke-linecap: butt; stroke-dashoffset: 0; stroke-linejoin: miter; stroke-miterlimit: 4; fill: rgb(28,49,84); fill-rule: nonzero; opacity: 1;" vector-effect="non-scaling-stroke"  transform=" translate(-2145, -1303.61)" d="M 2120 1298.61 L 2170 1298.61 L 2170 1308.61 L 2120 1308.61 z" stroke-linecap="round" />
</g>
		<g transform="matrix(0.1 0 0 -0.1 79.83 -48.83)" id="dJ08DKEE8WtgkCgup7qix"  >
<path style="stroke: none; stroke-width: 1; stroke-dasharray: none; stroke-linecap: butt; stroke-dashoffset: 0; stroke-linejoin: miter; stroke-miterlimit: 4; fill: rgb(7,12,15); fill-rule: nonzero; opacity: 1;" vector-effect="non-scaling-stroke"  transform=" translate(-3132.52, -1294.66)" d="M 3384.67 1280.7 L 2880.37 1280.7 C 2886.67 1289.91 2892.88 1299.22 2898.99 1308.6100000000001 L 2930 1308.6100000000001 L 2930 1298.6100000000001 L 3050 1298.6100000000001 L 3050 1304.45 L 3058.3 1304.45 L 3058.3 1308.6100000000001 L 3160 1308.6100000000001 L 3160 1298.6100000000001 L 3210 1298.6100000000001 L 3210 1308.6100000000001 L 3316.7 1308.6100000000001 L 3316.7 1308.6100000000001 C 3316.72 1308.6100000000001 3316.73 1308.6100000000001 3316.75 1308.6100000000001 L 3316.75 1308.6100000000001 C 3331.02 1308.6100000000001 3344.67 1305.3600000000001 3356.83 1299.7500000000002 C 3367.24 1294.9400000000003 3376.6 1288.4300000000003 3384.67 1280.7000000000003" stroke-linecap="round" />
</g>
		<g transform="matrix(0.1 0 0 -0.1 65.57 -49.73)" id="oc6tH4MYEfVg8QIXiG2AC"  >
<path style="stroke: none; stroke-width: 1; stroke-dasharray: none; stroke-linecap: butt; stroke-dashoffset: 0; stroke-linejoin: miter; stroke-miterlimit: 4; fill: rgb(15,28,42); fill-rule: nonzero; opacity: 1;" vector-effect="non-scaling-stroke"  transform=" translate(-2990, -1303.61)" d="M 3050 1298.61 L 2930 1298.61 L 2930 1308.61 L 2939.53 1308.61 L 2939.53 1304.4499999999998 L 3050 1304.4499999999998 L 3050 1298.61" stroke-linecap="round" />
</g>
		<g transform="matrix(0.1 0 0 -0.1 61.13 -28.23)" id="l5I0opXyw_E7aSIFSYwz4"  >
<path style="stroke: none; stroke-width: 1; stroke-dasharray: none; stroke-linecap: butt; stroke-dashoffset: 0; stroke-linejoin: miter; stroke-miterlimit: 4; fill: rgb(243,143,24); fill-rule: nonzero; opacity: 1;" vector-effect="non-scaling-stroke"  transform=" translate(-2945.56, -1088.61)" d="M 3298.98 928.609 L 2533.59 928.609 C 2659.4900000000002 1017.4100000000001 2767.54 1124.08 2857.71 1248.6100000000001 L 3316.7 1248.6100000000001 C 3321.97 1248.6000000000001 3326.9199999999996 1247.45 3331.7 1245.2600000000002 C 3338.8399999999997 1241.9900000000002 3345.49 1236.1600000000003 3350.18 1228.8200000000002 C 3354.71 1221.7700000000002 3357.3399999999997 1213.5500000000002 3357.5299999999997 1205.3200000000002 L 3339.8199999999997 971.8010000000002 L 3339.8199999999997 970.6720000000001 C 3339.83 959.2890000000001 3335.2 948.7110000000001 3327.6099999999997 940.9300000000002 C 3319.9799999999996 933.1720000000001 3310.0099999999998 928.6210000000002 3298.9799999999996 928.6090000000002 M 2980 1208.61 C 2963.43 1208.61 2950 1195.1799999999998 2950 1178.61 C 2950 1162.04 2963.43 1148.61 2980 1148.61 L 3040 1148.61 C 3056.57 1148.61 3070 1162.04 3070 1178.61 C 3070 1195.1799999999998 3056.57 1208.61 3040 1208.61 L 2980 1208.61" stroke-linecap="round" />
</g>
		<g transform="matrix(0.1 0 0 -0.1 60.69 -28.03)" id="cxUfd4ZYRO_dUeBNpsi6D"  >
<path style="stroke: none; stroke-width: 1; stroke-dasharray: none; stroke-linecap: butt; stroke-dashoffset: 0; stroke-linejoin: miter; stroke-miterlimit: 4; fill: rgb(8,12,15); fill-rule: nonzero; opacity: 1;" vector-effect="non-scaling-stroke"  transform=" translate(-2941.18, -1086.7)" d="M 3301.43 900.602 L 2492.38 900.602 C 2506.33 909.73 2520.06 919.059 2533.59 928.6089999999999 L 3298.98 928.6089999999999 C 3310.01 928.6209999999999 3319.98 933.1719999999999 3327.61 940.93 C 3335.2000000000003 948.7109999999999 3339.83 959.289 3339.82 970.6719999999999 L 3339.82 970.6719999999999 L 3339.82 971.8009999999999 L 3357.53 1205.32 C 3357.34 1213.55 3354.71 1221.77 3350.1800000000003 1228.82 C 3345.4900000000002 1236.1599999999999 3338.84 1241.99 3331.7000000000003 1245.26 C 3326.92 1247.45 3321.9700000000003 1248.6 3316.7000000000003 1248.61 L 2857.71 1248.61 C 2863.5 1256.59 2869.21 1264.6499999999999 2874.84 1272.79 L 3319.1400000000003 1272.79 C 3358.2400000000002 1272.79 3389.9800000000005 1241.04 3389.9800000000005 1201.92 L 3372.2700000000004 971.6600000000001 C 3372.2700000000004 932.5390000000001 3340.5500000000006 900.6020000000001 3301.4300000000003 900.6020000000001 M 3387.5400000000004 1204.3300000000002 L 3387.5400000000004 1204.3300000000002" stroke-linecap="round" />
</g>
		<g transform="matrix(0.1 0 0 -0.1 71.99 -50.02)" id="ysBZZGSgLIizGajCzdjyR"  >
<path style="stroke: none; stroke-width: 1; stroke-dasharray: none; stroke-linecap: butt; stroke-dashoffset: 0; stroke-linejoin: miter; stroke-miterlimit: 4; fill: rgb(7,12,15); fill-rule: nonzero; opacity: 1;" vector-effect="non-scaling-stroke"  transform=" translate(-3054.15, -1306.53)" d="M 3050 1304.45 L 3058.3008 1304.45 L 3058.3008 1308.6102 L 3050 1308.6102 Z" stroke-linecap="round" />
</g>
		<g transform="matrix(0.1 0 0 -0.1 66.05 -50.02)" id="Ph1_jaNlu9MbUGaidR1Wk"  >
<path style="stroke: none; stroke-width: 1; stroke-dasharray: none; stroke-linecap: butt; stroke-dashoffset: 0; stroke-linejoin: miter; stroke-miterlimit: 4; fill: rgb(15,28,42); fill-rule: nonzero; opacity: 1;" vector-effect="non-scaling-stroke"  transform=" translate(-2994.76, -1306.53)" d="M 2939.53 1304.45 L 3049.9990000000003 1304.45 L 3049.9990000000003 1308.6102 L 2939.53 1308.6102 Z" stroke-linecap="round" />
</g>
		<g transform="matrix(0.1 0 0 -0.1 85.07 -49.73)" id="JSd4AEQoBwk-LmXClEEZm"  >
<path style="stroke: none; stroke-width: 1; stroke-dasharray: none; stroke-linecap: butt; stroke-dashoffset: 0; stroke-linejoin: miter; stroke-miterlimit: 4; fill: rgb(15,28,42); fill-rule: nonzero; opacity: 1;" vector-effect="non-scaling-stroke"  transform=" translate(-3185, -1303.61)" d="M 3160 1298.61 L 3210 1298.61 L 3210 1308.61 L 3160 1308.61 z" stroke-linecap="round" />
</g>
		<g transform="matrix(0.1 0 0 -0.1 -59.93 -32.23)" id="OkUQScEQ79AkX-Lqx2RrJ"  >
<path style="stroke: none; stroke-width: 1; stroke-dasharray: none; stroke-linecap: butt; stroke-dashoffset: 0; stroke-linejoin: miter; stroke-miterlimit: 4; fill: rgb(238,139,23); fill-rule: nonzero; opacity: 1;" vector-effect="non-scaling-stroke"  transform=" translate(-1735, -1128.61)" d="M 1770 1098.61 L 1700 1098.61 C 1683.43 1098.61 1670 1112.04 1670 1128.61 C 1670 1145.1799999999998 1683.43 1158.61 1700 1158.61 L 1770 1158.61 C 1786.57 1158.61 1800 1145.1799999999998 1800 1128.61 C 1800 1112.04 1786.57 1098.61 1770 1098.61" stroke-linecap="round" />
</g>
		<g transform="matrix(0.1 0 0 -0.1 -26.93 -36.23)" id="HyaDYgCAway7YKGSNWpfW"  >
<path style="stroke: none; stroke-width: 1; stroke-dasharray: none; stroke-linecap: butt; stroke-dashoffset: 0; stroke-linejoin: miter; stroke-miterlimit: 4; fill: rgb(238,139,23); fill-rule: nonzero; opacity: 1;" vector-effect="non-scaling-stroke"  transform=" translate(-2065, -1168.61)" d="M 2100 1138.61 L 2030 1138.61 C 2013.43 1138.61 2000 1152.04 2000 1168.61 C 2000 1185.1799999999998 2013.43 1198.61 2030 1198.61 L 2100 1198.61 C 2116.57 1198.61 2130 1185.1799999999998 2130 1168.61 C 2130 1152.04 2116.57 1138.61 2100 1138.61" stroke-linecap="round" />
</g>
		<g transform="matrix(0.1 0 0 -0.1 67.57 -37.23)" id="r8iRjTNbQbJD8_whDZp7r"  >
<path style="stroke: none; stroke-width: 1; stroke-dasharray: none; stroke-linecap: butt; stroke-dashoffset: 0; stroke-linejoin: miter; stroke-miterlimit: 4; fill: rgb(235,117,23); fill-rule: nonzero; opacity: 1;" vector-effect="non-scaling-stroke"  transform=" translate(-3010, -1178.61)" d="M 3040 1148.61 L 2980 1148.61 C 2963.43 1148.61 2950 1162.04 2950 1178.61 C 2950 1195.1799999999998 2963.43 1208.61 2980 1208.61 L 3040 1208.61 C 3056.57 1208.61 3070 1195.1799999999998 3070 1178.61 C 3070 1162.04 3056.57 1148.61 3040 1148.61" stroke-linecap="round" />
</g>
		<g transform="matrix(0.1 0 0 -0.1 30.07 -35.23)" id="obsxVScrgYEPElAa3RMPW"  >
<path style="stroke: none; stroke-width: 1; stroke-dasharray: none; stroke-linecap: butt; stroke-dashoffset: 0; stroke-linejoin: miter; stroke-miterlimit: 4; fill: rgb(238,139,23); fill-rule: nonzero; opacity: 1;" vector-effect="non-scaling-stroke"  transform=" translate(-2635, -1158.61)" d="M 2670 1128.61 L 2600 1128.61 C 2583.43 1128.61 2570 1142.04 2570 1158.61 C 2570 1175.1699999999998 2583.43 1188.61 2600 1188.61 L 2670 1188.61 C 2686.57 1188.61 2700 1175.1699999999998 2700 1158.61 C 2700 1142.04 2686.57 1128.61 2670 1128.61" stroke-linecap="round" />
</g>
</g>
</g>
</svg>

<svg height="44" viewBox="0 0 199 44" width="199" xmlns="http://www.w3.org/2000/svg"><path d="m3369.82 970.672c0-39.121-31.72-72.063-70.84-72.063h-1753.23c-39.13 0-70.84 32.942-70.84 72.063l-17.71 233.658c0 39.12 31.71 74.28 70.84 74.28h1788.66c39.1 0 70.84-35.16 70.84-74.28z" fill="#f4ad19" transform="matrix(.1 0 0 -.1 -142.427 131.631)"/><path d="m3369.82 970.672h-30c.01-11.383-4.62-21.961-12.21-29.742-7.63-7.758-17.6-12.309-28.63-12.321h-1753.23c-11.03.012-21 4.563-28.63 12.321-7.59 7.781-12.22 18.359-12.21 29.742v1.129l-17.8 234.799-29.91-2.27h30c-.06 11.38 4.79 22.97 12.64 31.29 3.89 4.16 8.42 7.45 13.18 9.64 4.78 2.19 9.74 3.34 15.02 3.35h1788.66c5.27-.01 10.22-1.16 15-3.35 7.14-3.27 13.79-9.1 18.48-16.44 4.72-7.33 7.37-15.94 7.36-24.49h30l-29.91 2.27-17.81-234.799v-1.129h30l29.92-2.274 17.8 234.792v1.14c-.06 27.74-11.07 53.29-28.87 72.32-8.93 9.53-19.66 17.47-31.84 23.1-12.17 5.62-25.85 8.86-40.13 8.86h-1788.66c-14.29 0-27.97-3.24-40.14-8.86-18.29-8.46-33.27-22.05-43.86-38.53-10.57-16.49-16.83-36.11-16.84-56.89v-1.13l17.79-234.802 29.92 2.274h-30c.01-27.75 11.23-53.192 29.28-71.66 18-18.5 43.46-30.41 71.56-30.403h1753.23c28.1-.007 53.55 11.903 71.56 30.391 18.05 18.48 29.27 43.922 29.28 71.672h-30l29.92-2.274z" fill="#091019" transform="matrix(.1 0 0 -.1 -142.427 131.631)"/><path d="m1890 1298.61h120v10h-120z" fill="#1c3154" transform="matrix(.1 0 0 -.1 -142.43 131.631)"/><path d="m2120 1298.61h50v10h-50z" fill="#1c3154" transform="matrix(.1 0 0 -.1 -142.43 131.631)"/><path d="m3384.67 1280.7h-504.3c6.3 9.21 12.51 18.52 18.62 27.91h31.01v-10h120v5.84h8.3v4.16h101.7v-10h50v10h106.7.05c14.27 0 27.92-3.25 40.08-8.86 10.41-4.81 19.77-11.32 27.84-19.05" fill="#070c0f" transform="matrix(.1 0 0 -.1 -142.422 131.636)"/><path d="m3050 1298.61h-120v10h9.53v-4.16h110.47z" fill="#0f1c2a" transform="matrix(.1 0 0 -.1 -142.43 131.631)"/><path d="m3298.98 928.609h-765.39c125.9 88.801 233.95 195.471 324.12 320.001h458.99c5.27-.01 10.22-1.16 15-3.35 7.14-3.27 13.79-9.1 18.48-16.44 4.53-7.05 7.16-15.27 7.35-23.5l-17.71-233.519v-1.129c.01-11.383-4.62-21.961-12.21-29.742-7.63-7.758-17.6-12.309-28.63-12.321m-318.98 280.001c-16.57 0-30-13.43-30-30s13.43-30 30-30h60c16.57 0 30 13.43 30 30s-13.43 30-30 30z" fill="#f38f18" transform="matrix(.1 0 0 -.1 -142.426 131.631)"/><path d="m3301.43 900.602h-809.05c13.95 9.128 27.68 18.457 41.21 28.007h765.39c11.03.012 21 4.563 28.63 12.321 7.59 7.781 12.22 18.359 12.21 29.742v1.129l17.71 233.519c-.19 8.23-2.82 16.45-7.35 23.5-4.69 7.34-11.34 13.17-18.48 16.44-4.78 2.19-9.73 3.34-15 3.35h-458.99c5.79 7.98 11.5 16.04 17.13 24.18h444.3c39.1 0 70.84-31.75 70.84-70.87l-17.71-230.26c0-39.121-31.72-71.058-70.84-71.058" fill="#080c0f" transform="matrix(.1 0 0 -.1 -142.428 131.64)"/><path d="m3050 1304.45h8.3008v4.1602h-8.3008z" fill="#070c0f" transform="matrix(.1 0 0 -.1 -142.425 131.633)"/><path d="m2939.53 1304.45h110.469v4.1602h-110.469z" fill="#0f1c2a" transform="matrix(.1 0 0 -.1 -142.426 131.633)"/><g transform="matrix(.1 0 0 -.1 -142.43 131.631)"><path d="m3160 1298.61h50v10h-50z" fill="#0f1c2a"/><path d="m1770 1098.61h-70c-16.57 0-30 13.43-30 30s13.43 30 30 30h70c16.57 0 30-13.43 30-30s-13.43-30-30-30" fill="#ee8b17"/><path d="m2100 1138.61h-70c-16.57 0-30 13.43-30 30s13.43 30 30 30h70c16.57 0 30-13.43 30-30s-13.43-30-30-30" fill="#ee8b17"/><path d="m3040 1148.61h-60c-16.57 0-30 13.43-30 30s13.43 30 30 30h60c16.57 0 30-13.43 30-30s-13.43-30-30-30" fill="#eb7517"/><path d="m2670 1128.61h-70c-16.57 0-30 13.43-30 30 0 16.56 13.43 30 30 30h70c16.57 0 30-13.44 30-30 0-16.57-13.43-30-30-30" fill="#ee8b17"/></g></svg>
